X: 301
T: The humors of Castle Comer
C: anon.
O: Ireland
B: Francis O'Neill: "The Dance Music of Ireland" (1907) no. 301
R: Double jig
Z: Transcribed by Frank Nordberg - http://www.musicaviva.com
F: http://www.musicaviva.com/abc/tunes/ireland/oneill-1001/oneill-1001-030
1.abc
M: 6/8
L: 1/8
K: Edor
G/F/|EFE EFA|BcA B2c|ded dcB|ABA FED|EFE EFA|BaB B2c|dcB AFD|E3 E2:|
|:e|eBe eBe|efg f2e|ded dcB|ABA FED|eBe eBe|efg f2e|dcB AFD|E3E2:|
W:
W:
W: From Musica Viva - http://www.musicaviva.com
W: the Internet center for free sheet music downloads.


